src/telerik-icons/solid/row-freeze.svg

<?xml version="1.0" encoding="utf-8"?>
<svg xmlns="http://www.w3.org/2000/svg" width="512" height="512" viewBox="0 0 512 512">
  <path d="M32 448h416V32H32v416zM64 96l64 64H64V96zm96-32 96 96h-64L96 64h64zm128 0 96 96h-64l-96-96h64zm128 64-64-64h64v64zm-96 160v-96h96v96h-96zm-128 0v-96h96v96h-96zm-32 0H64v-96h96v96zm160 128v-96h96v96h-96zm-128 0v-96h96v96h-96zm-128 0v-96h96v96H64z"/>
</svg>

<?xml version="1.0" encoding="utf-8"?>
<!-- Generator: Adobe Illustrator 19.2.1, SVG Export Plug-In . SVG Version: 6.00 Build 0)  -->
<svg xmlns="http://www.w3.org/2000/svg" width="512" height="512" viewBox="0 0 512 512">
<path d="M32,448h416V32H32V448z M64,96l64,64H64V96z M160,64l96,96h-64L96,64H160z M288,64l96,96h-64l-96-96H288z M416,128l-64-64
	h64V128z M320,288v-96h96v96H320z M192,288v-96h96v96H192z M160,288H64v-96h96V288z M320,416v-96h96v96H320z M192,416v-96h96v96H192
	z M64,416v-96h96v96H64z" />
</svg>
